X: 10
T: Willie Coleman's
C: Willie Coleman
Z: Jim Williams
S: https://thesession.org/tunes/476#setting48331
R: jig
M: 6/8
L: 1/8
K: Gmaj
|:B2B AGE|GAG GBd|edB dgb|age dBA|
B2B AGE|GAG GBd|edB GAB|AGF G3:|
|:g2g edB|dgb age|~g3 edB|GBd e3|
g2g edB|dgb age|dcd edB|AGF G3:|

